img/image/phone-icon.svg

<svg width="28" height="28" viewBox="0 0 28 28" fill="none" xmlns="http://www.w3.org/2000/svg">
<g clip-path="url(#clip0_51_1166)">
<path d="M21.2874 18.5226C20.3726 17.6194 19.2306 17.6194 18.3217 18.5226C17.6283 19.2101 16.935 19.8976 16.2533 20.5968C16.0668 20.7891 15.9095 20.8299 15.6823 20.7017C15.2336 20.457 14.7558 20.2589 14.3247 19.9908C12.3145 18.7265 10.6307 17.1009 9.13906 15.2713C8.3991 14.3624 7.7407 13.3894 7.2804 12.294C7.18718 12.0726 7.20465 11.9269 7.38528 11.7463C8.07864 11.0762 8.75451 10.3887 9.43622 9.70118C10.3859 8.74563 10.3859 7.62694 9.43039 6.66556C8.88852 6.11786 8.34666 5.58182 7.80479 5.03413C7.24544 4.47478 6.69192 3.90961 6.12675 3.35608C5.21198 2.46462 4.06998 2.46462 3.16104 3.36191C2.46185 4.04944 1.7918 4.75445 1.08097 5.43033C0.422567 6.05377 0.0904542 6.81705 0.0205358 7.70851C-0.0901684 9.15931 0.26525 10.5286 0.766332 11.8628C1.7918 14.6246 3.35331 17.0776 5.24694 19.3266C7.80479 22.3681 10.8579 24.7744 14.4296 26.5107C16.0377 27.2915 17.7041 27.8916 19.5161 27.9907C20.763 28.0606 21.8467 27.746 22.7149 26.7729C23.3092 26.1087 23.9793 25.5027 24.6085 24.8677C25.5408 23.9238 25.5466 22.7818 24.6202 21.8495C23.5131 20.7366 22.4003 19.6296 21.2874 18.5226ZM20.1745 13.8788L22.3245 13.5117C21.9866 11.5365 21.0543 9.74779 19.6385 8.32612C18.1411 6.8287 16.2474 5.8848 14.1615 5.59347L13.8586 7.75512C15.4725 7.98235 16.9408 8.71067 18.1003 9.87015C19.1957 10.9655 19.9123 12.3523 20.1745 13.8788ZM23.5364 4.53304C21.0543 2.05094 17.9138 0.483602 14.447 0L14.1441 2.16164C17.1389 2.58116 19.8541 3.93874 21.9982 6.07708C24.0317 8.11054 25.366 10.68 25.8496 13.5059L27.9996 13.1388C27.4344 9.86432 25.8904 6.89279 23.5364 4.53304Z" fill="#303030"/>
</g>
<defs>
<clipPath id="clip0_51_1166">
<rect width="28" height="28" fill="white"/>
</clipPath>
</defs>
</svg>

<svg width="28" height="28" fill="none" xmlns="http://www.w3.org/2000/svg"><g clip-path="url(#a)"><path d="M21.287 18.523c-.914-.904-2.056-.904-2.965 0-.694.687-1.387 1.375-2.069 2.074-.186.192-.344.233-.57.105-.45-.245-.927-.443-1.358-.711-2.01-1.264-3.694-2.89-5.186-4.72-.74-.909-1.398-1.882-1.859-2.977-.093-.221-.075-.367.105-.548.694-.67 1.37-1.357 2.051-2.045.95-.955.95-2.074-.006-3.035-.541-.548-1.083-1.084-1.625-1.632-.56-.56-1.113-1.124-1.678-1.678-.915-.891-2.057-.891-2.966.006-.7.687-1.37 1.392-2.08 2.068-.658.624-.99 1.387-1.06 2.279-.111 1.45.244 2.82.745 4.154 1.026 2.762 2.587 5.215 4.48 7.464 2.559 3.041 5.612 5.447 9.184 7.184 1.608.78 3.274 1.38 5.086 1.48 1.247.07 2.33-.245 3.199-1.218.594-.664 1.264-1.27 1.893-1.905.933-.944.939-2.086.012-3.018a893.48 893.48 0 0 0-3.333-3.327Zm-1.113-4.644 2.15-.367a9.61 9.61 0 0 0-2.686-5.186 9.558 9.558 0 0 0-5.477-2.733l-.302 2.162A7.415 7.415 0 0 1 18.1 9.87a7.414 7.414 0 0 1 2.074 4.009Zm3.362-9.346A15.853 15.853 0 0 0 14.447 0l-.303 2.162c2.995.42 5.71 1.777 7.854 3.915a13.735 13.735 0 0 1 3.852 7.429l2.15-.367a15.97 15.97 0 0 0-4.464-8.606Z" fill="#303030"/></g><defs><clipPath id="a"><path fill="#fff" d="M0 0h28v28H0z"/></clipPath></defs></svg>
